client/resources/iconsets/breeze/src/svg/16x16/icon_refresh.svg

<svg xmlns="http://www.w3.org/2000/svg" width="16" height="16" viewBox="0 0 16 16">
 <path style="fill:#6d6d70"
       d="M 8 1.015625 C 4.134 1.015625 1 4.149625 1 8.015625 C 1 11.881625 4.134 15.015625 8 15.015625 C 11.1748 15.015625 13.86145 12.912425 14.71875 10.015625 L 12.5625 10.015625 C 11.78823 11.775125 10.0457 13.015625 8 13.015625 C 5.2386 13.015625 3 10.777025 3 8.015625 C 3 5.254225 5.2386 3.015625 8 3.015625 C 9.3816 3.015625 10.615525 3.59065 11.515625 4.5 L 9.0058594 7.015625 L 15.005859 7.015625 L 15.005859 1.015625 L 12.953125 3.0683594 C 11.683125 1.8033594 9.9339063 1.015625 8.0039062 1.015625 L 8 1.015625 z"
       />
</svg>

<svg xmlns="http://www.w3.org/2000/svg" width="16" height="16"><path d="M8 1.016a7 7 0 1 0 0 14 7 7 0 0 0 6.719-5h-2.156c-.774 1.759-2.517 3-4.562 3a5 5 0 1 1 0-10c1.382 0 2.616.575 3.516 1.484l-2.51 2.516h6v-6l-2.053 2.053c-1.27-1.265-3.019-2.053-4.949-2.053H8z" fill="#6d6d70"/></svg>
